;FLAVOR:Marlin
;TIME:670
;Filament used: 0.507116m
;Layer height: 0.1
;Generated with Cura_SteamEngine 4.0.0
M140 S60
M105
M190 S60
M104 S200
M105
M109 S200
M82 ;absolute extrusion mode
G21 ;metric values
G90 ;absolute positioning
M82 ;set extruder to absolute mode
M107 ;start with the fan off
G28 X0 Y0 ;move X/Y to min endstops
G28 Z0 ;move Z to min endstops
G1 Z15.0 F9000 ;move the platform down 15mm
G92 E0 ;zero the extruded length
G1 F200 E3 ;extrude 3mm of feed stock
G92 E0 ;zero the extruded length again
G1 F9000
;Put printing message on LCD screen
M117 Printing...
G92 E0
G1 F1500 E-6.5
;LAYER_COUNT:10
;LAYER:0
M107
G0 F3600 X94.443 Y77.571 Z0.3
;TYPE:SKIRT
G1 F1500 E0
G1 F1800 X94.984 Y76.932 E0.04177
G1 X97.117 Y74.675 E0.1967
G1 X97.688 Y74.13 E0.23608
G1 X98.311 Y73.645 E0.27547
G1 X98.689 Y73.396 E0.29805
G1 X101.328 Y71.767 E0.45278
G1 X102.02 Y71.386 E0.49219
G1 X102.747 Y71.078 E0.53158
G1 X103.194 Y70.93 E0.55507
G1 X106.165 Y70.043 E0.70976
G1 X106.932 Y69.856 E0.74915
G1 X107.714 Y69.747 E0.78854
G1 X108.162 Y69.721 E0.81093
G1 X111.262 Y69.628 E0.96566
G1 X112.052 Y69.644 E1.00508
G1 X112.835 Y69.74 E1.04443
G1 X113.606 Y69.915 E1.08388
G1 X114.231 Y70.119 E1.11668
G1 X114.952 Y70.389 E1.15509
G1 X115.677 Y70.703 E1.19451
G1 X116.366 Y71.089 E1.23391
G1 X117.013 Y71.542 E1.27331
G1 X117.61 Y72.059 E1.31271
G1 X118.153 Y72.634 E1.35217
G1 X118.65 Y73.217 E1.39039
G1 X119.131 Y73.843 E1.42977
G1 X119.547 Y74.514 E1.46916
G1 X119.892 Y75.225 E1.50859
G1 X120.164 Y75.966 E1.54797
G1 X120.395 Y76.917 E1.5968
G1 X120.529 Y77.674 E1.63515
G1 X120.627 Y78.458 E1.67457
G1 X120.645 Y79.247 E1.71394
G1 X120.584 Y80.035 E1.75337
G1 X120.443 Y80.812 E1.79277
G1 X120.223 Y81.574 E1.83234
G1 X119.973 Y82.3 E1.87065
G1 X119.678 Y83.032 E1.91002
G1 X119.311 Y83.731 E1.94941
G1 X119.043 Y84.154 E1.97439
G1 X115.639 Y89.147 E2.27588
G1 X115.472 Y89.451 E2.29318
G1 X115.441 Y89.552 E2.29845
G1 X115.141 Y91.589 E2.40117
G1 X115.07 Y93.812 E2.51214
G1 X115.252 Y96.028 E2.62306
G1 X115.772 Y98.643 E2.75608
G1 X115.885 Y99.41 E2.79476
G1 X115.995 Y100.537 E2.85125
G1 X116.061 Y100.566 E2.85485
G1 X116.767 Y100.921 E2.89428
G1 X117.433 Y101.344 E2.93364
G1 X118.053 Y101.833 E2.97303
G1 X118.61 Y102.371 E3.01167
G1 X119.167 Y102.965 E3.05229
G1 X119.677 Y103.567 E3.09166
G1 X120.124 Y104.218 E3.13105
G1 X120.502 Y104.911 E3.17044
G1 X120.778 Y105.556 E3.20544
G1 X121.064 Y106.317 E3.246
G1 X121.304 Y107.069 E3.28538
G1 X121.471 Y107.867 E3.32605
G1 X122.145 Y112.216 E3.54562
G1 X122.669 Y112.449 E3.57423
G1 X123.49 Y112.931 E3.62172
G1 X125.389 Y114.207 E3.73587
G1 X126.022 Y114.68 E3.77529
G1 X126.603 Y115.214 E3.81466
G1 X127.169 Y115.858 E3.85743
G1 X128.582 Y117.654 E3.97144
G1 X129.038 Y118.299 E4.01085
G1 X129.427 Y118.986 E4.05024
G1 X129.785 Y119.819 E4.09547
G1 X130.565 Y121.971 E4.20967
G1 X130.796 Y122.726 E4.24906
G1 X130.95 Y123.501 E4.28848
G1 X131.027 Y124.353 E4.33116
G1 X131.108 Y126.637 E4.44518
G1 X131.096 Y127.426 E4.48455
G1 X131.004 Y128.21 E4.52393
G1 X130.803 Y129.09 E4.56897
G1 X130.165 Y131.285 E4.68301
G1 X129.907 Y132.031 E4.72239
G1 X129.574 Y132.747 E4.76179
G1 X129.135 Y133.479 E4.80437
G1 X127.853 Y135.374 E4.91851
G1 X127.378 Y136.004 E4.95788
G1 X126.842 Y136.584 E4.99728
G1 X126.158 Y137.178 E5.04248
G1 X124.349 Y138.574 E5.15648
G1 X123.701 Y139.024 E5.19583
G1 X123.01 Y139.407 E5.23525
G1 X122.218 Y139.741 E5.27813
G1 X120.066 Y140.513 E5.3922
G1 X119.31 Y140.742 E5.43161
G1 X118.893 Y140.833 E5.4529
G1 X117.044 Y141.185 E5.5468
G1 X113.523 Y145.603 E5.82866
G1 X113 Y146.195 E5.86806
G1 X112.459 Y146.699 E5.90495
G1 X111 Y147.932 E6.00025
G1 X110.372 Y148.41 E6.03963
G1 X109.698 Y148.823 E6.07907
G1 X108.987 Y149.165 E6.11843
G1 X108.422 Y149.377 E6.14854
G1 X106.608 Y149.979 E6.24389
G1 X105.847 Y150.189 E6.28327
G1 X105.068 Y150.322 E6.3227
G1 X104.28 Y150.375 E6.3621
G1 X103.491 Y150.348 E6.40149
G1 X102.58 Y150.216 E6.44742
G1 X102.152 Y150.128 E6.46921
G1 X101.388 Y149.93 E6.50859
G1 X100.647 Y149.656 E6.54801
G1 X99.938 Y149.308 E6.58741
G1 X99.268 Y148.891 E6.62678
G1 X98.643 Y148.407 E6.66622
G1 X97.969 Y147.755 E6.713
G1 X97.677 Y147.436 E6.73458
G1 X97.174 Y146.827 E6.77399
G1 X96.736 Y146.17 E6.81338
G1 X96.365 Y145.473 E6.85277
G1 X96.067 Y144.741 E6.8922
G1 X95.845 Y143.984 E6.93156
G1 X95.67 Y142.945 E6.98413
G1 X95.605 Y142.295 E7.01672
G1 X95.566 Y141.506 E7.05613
G1 X95.607 Y140.718 E7.09549
G1 X95.728 Y139.937 E7.13492
G1 X95.861 Y139.427 E7.16122
G1 X95.823 Y139.384 E7.16408
G1 X95.359 Y138.745 E7.20348
G1 X94.816 Y137.761 E7.25955
G1 X94.369 Y136.793 E7.31274
G1 X94.074 Y136.06 E7.35216
G1 X93.855 Y135.301 E7.39158
G1 X93.675 Y134.15 E7.4497
G1 X93.589 Y133.083 E7.5031
G1 X93.566 Y132.293 E7.54253
G1 X93.622 Y131.506 E7.58189
G1 X93.834 Y130.42 E7.6371
G1 X94.112 Y129.392 E7.69023
G1 X94.357 Y128.641 E7.72964
G1 X94.567 Y128.145 E7.75651
G1 X95.354 Y126.448 E7.84984
G1 X95.388 Y126.224 E7.86114
G1 X95.07 Y125.957 E7.88186
G1 X94.495 Y125.407 E7.92155
G1 X93.953 Y124.833 E7.96094
G1 X93.472 Y124.207 E8.00032
G1 X92.94 Y123.317 E8.05205
G1 X92.578 Y122.608 E8.09177
G1 X92.255 Y121.887 E8.13119
G1 X92.007 Y121.138 E8.17055
G1 X91.807 Y120.189 E8.21893
G1 X91.692 Y119.402 E8.25862
G1 X91.617 Y118.616 E8.29801
G1 X91.612 Y118.11 E8.32325
G1 X91.647 Y116.45 E8.40609
G1 X91.703 Y115.662 E8.4455
G1 X91.839 Y114.884 E8.4849
G1 X91.846 Y114.861 E8.4861
G1 X91.85 Y114.782 E8.49005
G1 X92.021 Y113.794 E8.54007
G1 X92.515 Y111.732 E8.64586
G1 X92.737 Y110.974 E8.68526
G1 X93.035 Y110.243 E8.72465
G1 X93.322 Y109.703 E8.75516
G1 X92.196 Y107.824 E8.86444
G1 X91.825 Y107.126 E8.90388
G1 X91.656 Y106.738 E8.925
G1 X90.44 Y103.731 E9.08682
G1 X90.181 Y102.985 E9.12622
G1 X90.078 Y102.592 E9.14648
G1 X89.337 Y99.44 E9.30803
G1 X89.195 Y98.663 E9.34743
G1 X89.152 Y98.24 E9.36864
G1 X88.909 Y95.01 E9.53024
G1 X88.89 Y94.221 E9.56962
G1 X88.914 Y93.776 E9.59185
G1 X89.184 Y90.544 E9.75366
G1 X89.29 Y89.761 E9.79308
G1 X89.379 Y89.345 E9.8143
G1 X90.146 Y86.2 E9.97581
G1 X90.372 Y85.443 E10.01522
G1 X90.518 Y85.063 E10.03553
G1 X91.758 Y82.069 E10.19721
G1 X92.096 Y81.356 E10.23657
G1 X92.308 Y80.987 E10.2578
G1 X93.997 Y78.223 E10.41941
G1 X94.443 Y77.571 E10.45882
G0 F3600 X94.773 Y77.797
G1 F1800 X95.275 Y77.207 E10.49747
G1 X97.408 Y74.95 E10.6524
G1 X97.964 Y74.419 E10.69076
G1 X98.573 Y73.949 E10.72913
G1 X98.899 Y73.736 E10.74856
G1 X101.538 Y72.107 E10.90329
G1 X102.213 Y71.738 E10.94167
G1 X102.922 Y71.44 E10.98004
G1 X103.308 Y71.313 E11.00031
G1 X106.279 Y70.426 E11.155
G1 X107.026 Y70.245 E11.19334
G1 X107.789 Y70.142 E11.23175
G1 X108.174 Y70.12 E11.25099
G1 X111.274 Y70.027 E11.40572
G1 X112.043 Y70.044 E11.4441
G1 X112.806 Y70.141 E11.48247
G1 X113.555 Y70.316 E11.52084
G1 X114.091 Y70.494 E11.54902
G1 X114.812 Y70.764 E11.58743
G1 X115.517 Y71.071 E11.6258
G1 X116.187 Y71.449 E11.66417
G1 X116.814 Y71.895 E11.70256
G1 X117.391 Y72.403 E11.74092
G1 X117.848 Y72.893 E11.77434
G1 X118.345 Y73.476 E11.81256
G1 X118.813 Y74.087 E11.85096
G1 X119.215 Y74.742 E11.8893
G1 X119.547 Y75.436 E11.92769
G1 X119.805 Y76.161 E11.96608
G1 X120.001 Y76.987 E12.00843
G1 X120.135 Y77.744 E12.04679
G1 X120.229 Y78.507 E12.08514
G1 X120.244 Y79.276 E12.12351
G1 X120.179 Y80.043 E12.16192
G1 X120.035 Y80.798 E12.20026
G1 X119.845 Y81.443 E12.23381
G1 X119.595 Y82.169 E12.27212
G1 X119.307 Y82.883 E12.31053
G1 X118.947 Y83.562 E12.34887
G1 X118.712 Y83.929 E12.37061
G1 X115.298 Y88.937 E12.67299
G1 X115.104 Y89.291 E12.69313
G1 X115.049 Y89.468 E12.70238
G1 X114.741 Y91.554 E12.80758
G1 X114.669 Y93.823 E12.92084
G1 X114.854 Y96.078 E13.03372
G1 X115.38 Y98.721 E13.16816
G1 X115.487 Y99.449 E13.20487
G1 X115.619 Y100.809 E13.27304
G1 X115.9 Y100.933 E13.28837
G1 X116.587 Y101.278 E13.32672
G1 X117.234 Y101.694 E13.36509
G1 X117.835 Y102.174 E13.40347
G1 X118.318 Y102.644 E13.43709
G1 X118.875 Y103.238 E13.47772
G1 X119.371 Y103.826 E13.5161
G1 X119.804 Y104.462 E13.55448
G1 X120.168 Y105.139 E13.59283
G1 X120.404 Y105.697 E13.62306
G1 X120.69 Y106.458 E13.66361
G1 X120.923 Y107.191 E13.70199
G1 X121.076 Y107.928 E13.73954
G1 X121.784 Y112.497 E13.97021
G1 X121.86 Y112.523 E13.97422
G1 X122.559 Y112.842 E14.01255
G1 X123.267 Y113.263 E14.05364
G1 X125.166 Y114.539 E14.16779
G1 X125.781 Y115 E14.20613
G1 X126.345 Y115.523 E14.24451
G1 X126.855 Y116.105 E14.28311
G1 X128.268 Y117.901 E14.39712
G1 X128.711 Y118.53 E14.43551
G1 X129.087 Y119.201 E14.47388
G1 X129.409 Y119.955 E14.51478
G1 X130.189 Y122.107 E14.62898
G1 X130.413 Y122.843 E14.66736
G1 X130.56 Y123.598 E14.70574
G1 X130.627 Y124.367 E14.74425
G1 X130.708 Y126.651 E14.85827
G1 X130.696 Y127.42 E14.89664
G1 X130.603 Y128.183 E14.93499
G1 X130.419 Y128.978 E14.9757
G1 X129.781 Y131.173 E15.08974
G1 X129.528 Y131.9 E15.12815
G1 X129.201 Y132.596 E15.16651
G1 X128.804 Y133.254 E15.20485
G1 X127.522 Y135.149 E15.31899
G1 X127.059 Y135.763 E15.35736
G1 X126.534 Y136.326 E15.39577
G1 X125.914 Y136.861 E15.43662
G1 X124.105 Y138.257 E15.55062
G1 X123.472 Y138.695 E15.58903
G1 X122.798 Y139.065 E15.62738
G1 X122.083 Y139.364 E15.66605
G1 X119.931 Y140.136 E15.78011
G1 X119.194 Y140.358 E15.81851
G1 X118.818 Y140.44 E15.83771
G1 X116.824 Y140.82 E15.93898
G1 X113.21 Y145.354 E16.22825
G1 X112.7 Y145.929 E16.2666
G1 X112.2 Y146.393 E16.30063
G1 X110.741 Y147.626 E16.39593
G1 X110.129 Y148.091 E16.43428
G1 X109.472 Y148.49 E16.47263
G1 X108.776 Y148.819 E16.51103
G1 X108.296 Y148.997 E16.53658
G1 X106.482 Y149.599 E16.63193
G1 X105.74 Y149.803 E16.67032
G1 X104.981 Y149.929 E16.70871
G1 X104.214 Y149.976 E16.74704
G1 X103.445 Y149.942 E16.78545
G1 X102.661 Y149.824 E16.825
G1 X102.233 Y149.736 E16.8468
G1 X101.488 Y149.543 E16.8852
G1 X100.768 Y149.272 E16.92358
G1 X100.08 Y148.929 E16.96193
G1 X99.431 Y148.516 E17.00031
G1 X98.828 Y148.038 E17.0387
G1 X98.265 Y147.484 E17.07811
G1 X97.973 Y147.165 E17.09968
G1 X97.483 Y146.572 E17.13806
G1 X97.058 Y145.931 E17.17643
G1 X96.702 Y145.249 E17.21481
G1 X96.419 Y144.534 E17.25318
G1 X96.211 Y143.793 E17.29157
G1 X96.068 Y142.905 E17.33645
G1 X96.003 Y142.255 E17.36904
G1 X95.966 Y141.487 E17.4074
G1 X96.009 Y140.719 E17.44577
G1 X96.132 Y139.96 E17.48413
G1 X96.304 Y139.323 E17.51705
G1 X96.122 Y139.118 E17.53073
G1 X95.673 Y138.493 E17.56912
G1 X95.179 Y137.593 E17.62034
G1 X94.732 Y136.625 E17.67354
G1 X94.446 Y135.911 E17.71191
G1 X94.236 Y135.171 E17.75029
G1 X94.074 Y134.118 E17.80344
G1 X93.988 Y133.051 E17.85684
G1 X93.966 Y132.282 E17.89523
G1 X94.024 Y131.515 E17.9336
G1 X94.221 Y130.524 E17.98401
G1 X94.499 Y129.496 E18.03714
G1 X94.738 Y128.765 E18.07551
G1 X94.929 Y128.313 E18.09999
G1 X95.741 Y126.564 E18.19619
G1 X95.815 Y126.064 E18.22141
G1 X95.347 Y125.668 E18.25199
G1 X94.772 Y125.118 E18.29169
G1 X94.245 Y124.558 E18.33006
G1 X93.778 Y123.946 E18.36846
G1 X93.296 Y123.135 E18.41553
G1 X92.934 Y122.426 E18.45525
G1 X92.621 Y121.724 E18.49359
G1 X92.382 Y120.993 E18.53196
G1 X92.203 Y120.131 E18.57589
G1 X92.088 Y119.344 E18.61557
G1 X92.016 Y118.578 E18.65395
G1 X92.012 Y118.118 E18.6769
G1 X92.047 Y116.458 E18.75974
G1 X92.103 Y115.691 E18.7981
G1 X92.238 Y114.934 E18.83647
G1 X92.252 Y114.885 E18.83901
G1 X92.286 Y114.527 E18.85695
G1 X92.41 Y113.887 E18.88947
G1 X92.904 Y111.825 E18.99526
G1 X93.121 Y111.087 E19.03364
G1 X93.415 Y110.376 E19.07202
G1 X93.78 Y109.699 E19.11039
G1 X93.784 Y109.693 E19.11075
G1 X92.54 Y107.618 E19.23145
G1 X92.027 Y106.588 E19.28886
G1 X90.811 Y103.581 E19.45068
G1 X90.467 Y102.5 E19.50728
G1 X89.726 Y99.348 E19.66882
G1 X89.551 Y98.21 E19.72626
G1 X89.308 Y94.98 E19.88786
G1 X89.29 Y94.211 E19.92624
G1 X89.313 Y93.809 E19.94633
G1 X89.583 Y90.577 E20.10814
G1 X89.768 Y89.44 E20.16561
G1 X90.535 Y86.295 E20.32711
G1 X90.887 Y85.216 E20.38373
G1 X92.127 Y82.222 E20.54541
G1 X92.65 Y81.195 E20.60291
G1 X94.339 Y78.431 E20.76451
G1 X94.773 Y77.797 E20.80284
G0 F3600 X95.104 Y78.023
G1 F1800 X95.565 Y77.482 E20.8383
G1 X97.698 Y75.225 E20.99324
G1 X98.241 Y74.71 E21.03057
G1 X99.109 Y74.076 E21.0842
G1 X101.748 Y72.447 E21.23892
G1 X102.405 Y72.089 E21.27625
G1 X103.422 Y71.697 E21.33063
G1 X106.393 Y70.81 E21.48532
G1 X107.121 Y70.634 E21.52268
G1 X108.186 Y70.52 E21.57612
G1 X111.286 Y70.427 E21.73085
G1 X112.034 Y70.445 E21.76818
G1 X112.776 Y70.542 E21.80551
G1 X113.503 Y70.718 E21.84283
G1 X113.951 Y70.869 E21.86641
G1 X114.672 Y71.139 E21.90482
G1 X115.357 Y71.438 E21.94211
G1 X116.007 Y71.809 E21.97945
G1 X116.613 Y72.247 E22.01676
G1 X117.17 Y72.747 E22.0541
G1 X117.544 Y73.153 E22.08164
G1 X118.041 Y73.736 E22.11986
G1 X118.495 Y74.33 E22.15716
G1 X118.883 Y74.97 E22.1945
G1 X119.201 Y75.647 E22.23181
G1 X119.445 Y76.354 E22.26913
G1 X119.607 Y77.057 E22.30512
G1 X119.741 Y77.814 E22.34347
G1 X119.832 Y78.556 E22.38077
G1 X119.843 Y79.304 E22.41809
G1 X119.774 Y80.049 E22.45542
G1 X119.626 Y80.783 E22.49278
G1 X119.467 Y81.313 E22.52038
G1 X119.217 Y82.039 E22.55869
G1 X118.936 Y82.732 E22.596
G1 X118.382 Y83.703 E22.65177
G1 X114.956 Y88.729 E22.95523
G1 X114.733 Y89.135 E22.97834
G1 X114.657 Y89.377 E22.991
G1 X114.342 Y91.518 E23.09896
G1 X114.269 Y93.826 E23.21417
G1 X114.459 Y96.144 E23.3302
G1 X114.987 Y98.799 E23.46525
G1 X115.089 Y99.488 E23.5
G1 X115.229 Y100.928 E23.57218
G1 X115.236 Y101.078 E23.57967
G1 X115.739 Y101.299 E23.60708
G1 X116.407 Y101.636 E23.64441
G1 X117.034 Y102.043 E23.68171
G1 X117.615 Y102.514 E23.71902
G1 X118.026 Y102.918 E23.74777
G1 X118.583 Y103.512 E23.7884
G1 X119.065 Y104.084 E23.82572
G1 X119.483 Y104.704 E23.86302
G1 X119.832 Y105.366 E23.90036
G1 X120.03 Y105.837 E23.92585
G1 X120.316 Y106.598 E23.96641
G1 X120.541 Y107.312 E24.00375
G1 X120.68 Y107.989 E24.03823
G1 X121.425 Y112.799 E24.28107
G1 X121.77 Y112.918 E24.29928
G1 X122.447 Y113.235 E24.33657
G1 X123.044 Y113.595 E24.37135
G1 X124.943 Y114.871 E24.48549
G1 X125.541 Y115.321 E24.52283
G1 X126.087 Y115.832 E24.56014
G1 X126.54 Y116.353 E24.59458
G1 X127.953 Y118.149 E24.70859
G1 X128.384 Y118.761 E24.74594
G1 X128.747 Y119.415 E24.78326
G1 X129.033 Y120.092 E24.81992
G1 X129.813 Y122.244 E24.93412
G1 X130.03 Y122.96 E24.97145
G1 X130.169 Y123.695 E25.00877
G1 X130.228 Y124.381 E25.04312
G1 X130.309 Y126.665 E25.15714
G1 X130.295 Y127.413 E25.19446
G1 X130.202 Y128.155 E25.23177
G1 X130.035 Y128.867 E25.26826
G1 X129.397 Y131.062 E25.3823
G1 X129.15 Y131.768 E25.41961
G1 X128.829 Y132.444 E25.45695
G1 X128.473 Y133.03 E25.49116
G1 X127.191 Y134.925 E25.6053
G1 X126.739 Y135.522 E25.64266
G1 X126.226 Y136.066 E25.67996
G1 X125.67 Y136.545 E25.71658
G1 X123.861 Y137.941 E25.83058
G1 X123.245 Y138.365 E25.86788
G1 X122.587 Y138.722 E25.90523
G1 X121.948 Y138.988 E25.93976
G1 X119.796 Y139.76 E26.05383
G1 X118.743 Y140.047 E26.10828
G1 X116.604 Y140.455 E26.21692
G1 X112.898 Y145.104 E26.51353
G1 X112.401 Y145.664 E26.55089
G1 X111.942 Y146.087 E26.58203
G1 X110.483 Y147.32 E26.67733
G1 X109.887 Y147.772 E26.71465
G1 X109.246 Y148.158 E26.75198
G1 X108.567 Y148.472 E26.7893
G1 X108.17 Y148.618 E26.81041
G1 X106.356 Y149.22 E26.90576
G1 X105.634 Y149.417 E26.9431
G1 X104.896 Y149.536 E26.98039
G1 X104.149 Y149.576 E27.01771
G1 X103.402 Y149.536 E27.05503
G1 X102.741 Y149.433 E27.08841
G1 X102.313 Y149.345 E27.11021
G1 X101.59 Y149.155 E27.14751
G1 X100.89 Y148.889 E27.18486
G1 X100.223 Y148.55 E27.22219
G1 X99.596 Y148.142 E27.25951
G1 X99.017 Y147.67 E27.29678
G1 X98.56 Y147.214 E27.32899
G1 X98.268 Y146.895 E27.35057
G1 X97.793 Y146.317 E27.38789
G1 X97.382 Y145.692 E27.42521
G1 X97.041 Y145.026 E27.46254
G1 X96.772 Y144.328 E27.49986
G1 X96.58 Y143.605 E27.53718
G1 X96.466 Y142.866 E27.57449
G1 X96.401 Y142.216 E27.60708
G1 X96.366 Y141.468 E27.64443
G1 X96.412 Y140.722 E27.68172
G1 X96.536 Y139.984 E27.71906
G1 X96.739 Y139.264 E27.75638
G1 X96.754 Y139.227 E27.75837
G1 X96.421 Y138.852 E27.78339
G1 X95.987 Y138.242 E27.82074
G1 X95.542 Y137.426 E27.86711
G1 X95.095 Y136.458 E27.92031
G1 X94.818 Y135.763 E27.95763
G1 X94.617 Y135.042 E27.99497
G1 X94.473 Y134.085 E28.04326
G1 X94.387 Y133.018 E28.09666
